picto/hand-dryer.svg

<svg class="color-immutable" width="24" height="24" viewBox="0 0 24 24" fill="none" xmlns="http://www.w3.org/2000/svg"><g clip-path="url(#a)"><path d="M0 22.5v-21C0 .675.675 0 1.5 0h21c.825 0 1.5.675 1.5 1.5v21c0 .825-.675 1.5-1.5 1.5h-21C.675 24 0 23.325 0 22.5Z" fill="#2D327D"/><path d="M15.263 8.55a1.239 1.239 0 0 0 0-2.476v.45a.789.789 0 1 1-.787.788V3h-.45v4.312a1.237 1.237 0 0 0 1.237 1.238ZM8.738 8.55a1.24 1.24 0 0 0 1.238-1.238V3h-.45v4.312a.789.789 0 0 1-1.576 0c0-.435.353-.787.787-.787v-.45a1.239 1.239 0 0 0 .001 2.475ZM14.25 10.087c0-.682-.555-1.237-1.238-1.237v.45a.789.789 0 0 1 0 1.575.788.788 0 0 1-.787-.788V3h-.45v7.087a1.24 1.24 0 0 0 1.237 1.238c.683 0 1.238-.555 1.238-1.238ZM10.694 13.632a.592.592 0 0 0-1.012-.42l-3.523 3.522a.633.633 0 0 1-.449.187H4.705a.443.443 0 0 1-.444-.444v-1.804a.95.95 0 0 0-.635-.898.476.476 0 0 0-.634.449v6.774L8.238 21v-.002l2.199-2.196a.572.572 0 0 0 0-.808l-.179-.179-1.696 1.696-.194-.194 2.077-2.077a.569.569 0 0 0 0-.808l-.179-.18-2.481 2.481-.195-.195 2.862-2.862a.569.569 0 0 0 0-.808l-.179-.18-3.266 3.266-.194-.194 3.708-3.708a.597.597 0 0 0 .173-.42ZM20.516 13.748a.466.466 0 0 0-.159.027.952.952 0 0 0-.635.898v1.804a.444.444 0 0 1-.444.444h-1.005a.631.631 0 0 1-.449-.187l-3.522-3.522a.593.593 0 0 0-.84.84l3.708 3.708-.194.194-3.266-3.266-.18.18a.573.573 0 0 0 0 .808l2.862 2.862-.194.194-2.481-2.481-.179.18a.567.567 0 0 0 0 .808l2.077 2.077-.194.194-1.696-1.696-.179.179a.57.57 0 0 0 0 .808l2.199 2.196V21l5.246-.002v-6.774a.476.476 0 0 0-.475-.476Z" fill="#fff"/></g><defs><clipPath id="a"><path fill="#fff" d="M0 0h24v24H0z"/></clipPath></defs></svg>

<svg class="color-immutable" width="24" height="24" viewBox="0 0 24 24" fill="none" xmlns="http://www.w3.org/2000/svg"><path d="M0 22.5V1.5C0 0.675 0.675 0 1.5 0H22.5C23.325 0 24 0.675 24 1.5V22.5C24 23.325 23.325 24 22.5 24H1.5C0.675 24 0 23.325 0 22.5Z" fill="#2D327D"/><path d="M15.263 8.55C15.945 8.55 16.501 7.995 16.501 7.312C16.501 6.629 15.946 6.074 15.263 6.074V6.524C15.697 6.524 16.051 6.877 16.051 7.311C16.051 7.745 15.697 8.1 15.263 8.1C14.829 8.1 14.476 7.747 14.476 7.312V3H14.026V7.312C14.025 7.995 14.58 8.55 15.263 8.55Z" fill="white"/><path d="M8.738 8.55C9.42 8.55 9.976 7.995 9.976 7.312V3H9.526V7.312C9.526 7.746 9.173 8.1 8.738 8.1C8.303 8.1 7.95 7.747 7.95 7.312C7.95 6.877 8.303 6.525 8.737 6.525V6.075C8.055 6.075 7.5 6.63 7.5 7.312C7.5 7.994 8.055 8.55 8.738 8.55Z" fill="white"/><path d="M14.25 10.087C14.25 9.405 13.695 8.85 13.012 8.85V9.3C13.446 9.3 13.8 9.653 13.8 10.087C13.8 10.521 13.447 10.875 13.012 10.875C12.578 10.875 12.225 10.522 12.225 10.087V3H11.775V10.087C11.775 10.769 12.33 11.325 13.012 11.325C13.695 11.325 14.25 10.77 14.25 10.087Z" fill="white"/><path d="M10.694 13.632C10.694 13.304 10.429 13.039 10.101 13.039C9.944 13.039 9.793 13.101 9.682 13.212L6.159 16.734C6.041 16.853 5.879 16.921 5.71 16.921H4.705C4.459 16.921 4.26 16.722 4.261 16.477V14.673C4.261 14.269 4.008 13.91 3.626 13.775C3.576 13.757 3.523 13.748 3.467 13.748C3.206 13.748 2.992 13.961 2.992 14.224V20.998L8.238 21V20.998L10.437 18.802C10.544 18.694 10.605 18.548 10.604 18.398C10.604 18.247 10.544 18.101 10.437 17.994L10.258 17.815L8.562 19.511L8.368 19.317L10.445 17.24C10.552 17.134 10.612 16.988 10.612 16.836C10.612 16.684 10.552 16.539 10.445 16.432L10.266 16.252L7.785 18.733L7.59 18.538L10.452 15.676C10.56 15.568 10.619 15.424 10.619 15.271C10.619 15.121 10.559 14.974 10.452 14.868L10.273 14.688L7.007 17.954L6.813 17.76L10.521 14.052C10.632 13.94 10.694 13.789 10.694 13.632Z" fill="white"/><path d="M20.516 13.748C20.46 13.748 20.407 13.757 20.357 13.775C19.976 13.91 19.722 14.269 19.722 14.673V16.477C19.722 16.722 19.523 16.921 19.278 16.921H18.273C18.104 16.921 17.943 16.854 17.824 16.734L14.302 13.212C14.191 13.1 14.039 13.039 13.883 13.039C13.555 13.039 13.289 13.304 13.289 13.632C13.289 13.789 13.351 13.94 13.462 14.052L17.17 17.76L16.976 17.954L13.71 14.688L13.53 14.868C13.422 14.974 13.363 15.12 13.363 15.271C13.363 15.424 13.423 15.568 13.53 15.676L16.392 18.538L16.198 18.732L13.717 16.251L13.538 16.431C13.43 16.538 13.37 16.683 13.37 16.835C13.37 16.987 13.43 17.132 13.538 17.239L15.615 19.316L15.421 19.51L13.725 17.814L13.546 17.993C13.439 18.101 13.378 18.246 13.379 18.397C13.379 18.548 13.439 18.694 13.546 18.801L15.745 20.997V21L20.991 20.998V14.224C20.992 13.962 20.778 13.748 20.516 13.748Z" fill="white"/></svg>
